X: 16
T: Missa Cuiusvis toni (on D) / Sanctus
N: Derived from Ock1004.1d-Missa_Cuiusvis_toni-Sanctus-on_D.krn
C: Johannes Ockeghem
%%abc-version 2.0
%%abcx-abcm2ps-target-version 5.9.1 (29 Sep 2008)
%%abc-creator hum2abc beta
%%abcx-conversion-date 2019/02/17 07:26:13
%%abc-edited-by Jesse Rodin
%%abc-edited-by Jesse Rodin 8-24-2012
%%abcx-initial-encoding-date 2012/08/24/
%%humdrum-veritas 2084416026
%%humdrum-veritas-data 3935633450
%%linebreak <none>
%%barnumbers 0
L: 1/4
M: 3/1
Q: 1/2=120
%%staves [1 2 3 4]
V: 1 clef=treble
V: 2 clef=treble-8
V: 3 clef=treble-8
V: 4 clef=bass
K: F
[V:1] D6E2F4 | 
[V:2] d6c2d2B2 | 
[V:3] z12 | 
[V:4] z12 | 
[V:1] F4G3FG2A2- | 
[V:2] A4G2B4c2 | 
[V:3] z12 | 
[V:4] z12 | 
[V:1] AFF2G2B2A2B2- | 
[V:2] d4e2d2f2e2 | 
[V:3] D4G4F2G2- | 
[V:4] z12 | 
[V:1] B2A2G4F4 | 
[V:2] d2d4^c2d3B | 
[V:3] GFD2E4D4 | 
[V:4] z4z4D,4 | 
[V:1] z12 | 
[V:2] A4B2c2d2B2 | 
[V:3] E2F3GA2F2E2 | 
[V:4] C,2D,3C,A,,2B,,3G,, | 
[V:1] z12 | 
[V:2] A2B3GG4^F2 | 
[V:3] F2D4E2C4 | 
[V:4] F,,2G,,2B,,2C,2A,,4 | 
[V:1] B,6B,2C4 | 
[V:2] G4G2G2A4 | 
[V:3] D4D2D2F4 | 
[V:4] G,,4B,,4A,,4 | 
[V:1] D6E2F4 | 
[V:2] B8c4 | 
[V:3] z2G4G2A4 | 
[V:4] G,,8F,,4 | 
[V:1] G2F4D2E3C | 
[V:2] d3cA2B4A2 | 
[V:3] B3AF2B,FGE2D/E/ | 
[V:4] B,,4D,4C,4 | 
[V:1] D2E2F2D2E2D2- | 
[V:2] B4z2B2A2B2- | 
[V:3] F2G2D2G2E2F2 | 
[V:4] B,,4z2B,,2C,2B,,2 | 
[V:1] D2B,2A,4G,4 | 
[V:2] Bcd3cA2c4 | 
[V:3] G2G4F2G4 | 
[V:4] G,,4D,4E,4 | 
[V:1] z2F2G2A2B4- | 
[V:2] d4e3cd4 | 
[V:3] A4c4B2G2 | 
[V:4] D,4C,2A,,2G,,2G,2- | 
[V:1] B2A2G4F2B2 | 
[V:2] G2A2B2G2A2F2 | 
[V:3] z2d4c2d2B2 | 
[V:4] G,2F,2G,2E,2D,4 | 
[V:1] A2B4G4^F2 | 
[V:2] z2F2G3FD2d2 | 
[V:3] c2d4B2A4 | 
[V:4] C,2B,,2G,,4D,4 | 
[V:1] G6A4F2 | 
[V:2] B3cd2_e2d4- | 
[V:3] G2B4A2F3G | 
[V:4] _E,3D,/C,/B,,2C,2D,4 | 
[V:1] F12 ||  
[V:2] d12 ||  
[V:3] A2B2A8 ||  
[V:4] D,12 ||  
[V:1]  [K:F] [K:clef=treble][M:3/1]F6D2F3G | 
[V:2]  [K:F] [K:clef=treble-8][M:3/1]d4d6B2 | 
[V:3]  [K:F] [K:clef=treble-8][M:3/1]z12 | 
[V:4]  [K:F] [K:clef=bass][M:3/1]z12 | 
[V:1] E2D4G3FF2 | 
[V:2] c2B2G4d4 | 
[V:3] z12 | 
[V:4] z12 | 
[V:1] G2A2GEG3^F2E | 
[V:2] c6B2A4 | 
[V:3] z12 | 
[V:4] z12 | 
[V:1] G4z4E4 | 
[V:2] G8z2A2- | 
[V:3] z12 | 
[V:4] z4C,8 | 
[V:1] F4E2G4F2 | 
[V:2] A2F2G3AB3G | 
[V:3] z12 | 
[V:4] D,4C,4B,,4 | 
[V:1] E2D4B,2A,2D2- | 
[V:2] A2B4G2F4 | 
[V:3] z12 | 
[V:4] C,2B,,2G,,4D,4 | 
[V:1] DCC2F3EE2D2 | 
[V:2] G2A3FF2G2B2- | 
[V:3] z12 | 
[V:4] B,,2A,,2D,4C,2B,,2 | 
[V:1] G2FDE2D2C2EF- | 
[V:2] BAGFc2BGA4 | 
[V:3] z12 | 
[V:4] G,,2z2z4A,,2C,D,- | 
[V:1] FDCD2CA,B,3/A,/D2^C | 
[V:2] F2AB2AFG3/F/DE2 | 
[V:3] z12 | 
[V:4] D,B,,A,,G,,B,,C,D,G,,z4 | 
[V:1] D4z4z4 | 
[V:2] z2D4G2F2G2 | 
[V:3] D2F2GB2GA2G2 | 
[V:4] z4G,,4D,2E,2 | 
[V:1] z12 | 
[V:2] A4G2B2Ad2B | 
[V:3] d2cABGFGD2z2 | 
[V:4] D,E,F,2E,2D,G,2F,G,2 | 
[V:1] z12 | 
[V:2] Ac2B2A2GA4 | 
[V:3] z4z2D2E2C2 | 
[V:4] F,2E,D,2C,B,,2A,,4 | 
[V:1] z12 | 
[V:2] z2d3ccBB3A | 
[V:3] D2F2E3FG4 | 
[V:4] z4A,,4G,,4 | 
[V:1] z12 | 
[V:2] F2B3AA2G2F2 | 
[V:3] A2F3DE2D2F2- | 
[V:4] D,6C,2B,,2D,2- | 
[V:1] z4z4C4 | 
[V:2] A3GEDG4^F2 | 
[V:3] FEE2GFD2EC2B, | 
[V:4] D,C,C,2G,,2B,,2A,,4 | 
[V:1] B,4C3DE4 | 
[V:2] G4A2G2c4 | 
[V:3] D4z2E4F2 | 
[V:4] G,,4C,8 | 
[V:1] D12 ||  
[V:2] B12 ||  
[V:3] G12 ||  
[V:4] G,,12 ||  
[V:1]  [K:F] [K:clef=treble][M:2/1]D8 | 
[V:2]  [K:F] [K:clef=treble-8][M:2/1]B8 | 
[V:3]  [K:F] [K:clef=treble-8][M:2/1]G8- | 
[V:4]  [K:F] [K:clef=bass][M:2/1]G,,8 | 
[V:1] E4D4- | 
[V:2] c4d4 | 
[V:3] G8 | 
[V:4] C,4B,,4 | 
[V:1] D4G4 | 
[V:2] B4d4- | 
[V:3] G4B4 | 
[V:4] G,,8 | 
[V:1] F4G4 | 
[V:2] d4c4 | 
[V:3] A4G4 | 
[V:4] D,4E,4 | 
[V:1] A8 | 
[V:2] z4d4- | 
[V:3] F2F4EF | 
[V:4] D,8 | 
[V:1] B8- | 
[V:2] d4B4 | 
[V:3] G4D4 | 
[V:4] G,,8 | 
[V:1] B4A4 | 
[V:2] G4A4 | 
[V:3] E4F4 | 
[V:4] z8 | 
[V:1] G8 | 
[V:2] B8 | 
[V:3] G3ED4- | 
[V:4] G,,8 | 
[V:1] F8 | 
[V:2] A8 | 
[V:3] D2CB,C4 | 
[V:4] A,,8 | 
[V:1] z4G4- | 
[V:2] B4d4 | 
[V:3] D8 | 
[V:4] G,,4B,,4 | 
[V:1] G2E2F4- | 
[V:2] c4A4 | 
[V:3] z8 | 
[V:4] C,4D,4- | 
[V:1] F2G2A4 | 
[V:2] d8 | 
[V:3] D8 | 
[V:4] D,2E,2F,4 | 
[V:1] G4B4 | 
[V:2] z4d4- | 
[V:3] E4G4 | 
[V:4] G,4G,,4 | 
[V:1] A4c4 | 
[V:2] d2c2A4 | 
[V:3] F8 | 
[V:4] A,,8 | 
[V:1] B2G2G4- | 
[V:2] B4d4- | 
[V:3] G4B4 | 
[V:4] G,,8 | 
[V:1] G4^F4 | 
[V:2] d2cBA4 | 
[V:3] A8 | 
[V:4] D,8 | 
[V:1] G8- | 
[V:2] G4B4- | 
[V:3] z4G4- | 
[V:4] G,,8 | 
[V:1] G8 | 
[V:2] B2c2d4- | 
[V:3] G4B4 | 
[V:4] z4G,4 | 
[V:1] z8 | 
[V:2] d8 | 
[V:3] A4F4 | 
[V:4] F,4D,4 | 
[V:1] z4G4 | 
[V:2] B4c4 | 
[V:3] G4E4 | 
[V:4] E,8 | 
[V:1] F4D4 | 
[V:2] d2B2z2B2 | 
[V:3] F8 | 
[V:4] D,4B,,4 | 
[V:1] E8 | 
[V:2] G2A4GA | 
[V:3] z8 | 
[V:4] C,8 | 
[V:1] D4C2D2- | 
[V:2] B4A2B2 | 
[V:3] F8 | 
[V:4] B,,4F,,2B,,2- | 
[V:1] D2B,2A,4 | 
[V:2] G4z2F2 | 
[V:3] D2E2F4 | 
[V:4] B,,2C,2D,4 | 
[V:1] z4A,4 | 
[V:2] G4F3D | 
[V:3] E4z2D2- | 
[V:4] C,4D,4 | 
[V:1] G,4C4 | 
[V:2] E2G4F2 | 
[V:3] D2B,2C4 | 
[V:4] G,,4A,,4 | 
[V:1] B,4C4 | 
[V:2] G4A4 | 
[V:3] D4E4 | 
[V:4] G,,4C,4 | 
[V:1] D6E2 | 
[V:2] B6A2 | 
[V:3] D4G4 | 
[V:4] G,,2B,,4C,2 | 
[V:1] F8 | 
[V:2] A6F2 | 
[V:3] z2F4D2 | 
[V:4] D,8 | 
[V:1] E4D4 | 
[V:2] G2A2B4- | 
[V:3] E4F4 | 
[V:4] C,4B,,4 | 
[V:1] z4G4- | 
[V:2] B4G4 | 
[V:3] G4B4 | 
[V:4] G,,8 | 
[V:1] G2F2F2E2 | 
[V:2] D4d4 | 
[V:3] A8 | 
[V:4] z4D,4 | 
[V:1] G6E2 | 
[V:2] z2B4c2 | 
[V:3] G8 | 
[V:4] E,6C,2 | 
[V:1] F4G2A2- | 
[V:2] B2A2c4- | 
[V:3] z2F2E4 | 
[V:4] D,4C,2A,,2- | 
[V:1] A2G3FE2- | 
[V:2] c2B2G2A2 | 
[V:3] F2D2E3F | 
[V:4] A,,2B,,2C,4 | 
[V:1] EDD2C2D2- | 
[V:2] B4A2F2 | 
[V:3] G4E2D2- | 
[V:4] G,,4A,,2B,,2 | 
[V:1] D2B,2A,3B, | 
[V:2] G4A4 | 
[V:3] D2E2F3G | 
[V:4] G,,4D,3B,, | 
[V:1] C2D2E2F2- | 
[V:2] z2B4c2 | 
[V:3] A2B2G2A2- | 
[V:4] A,,2G,,4F,,2- | 
[V:1] F2E2D2E2- | 
[V:2] d2B2A2B2- | 
[V:3] AFG2F2G2 | 
[V:4] F,,D,,E,,2F,,2E,,2 | 
[V:1] E2D4^C2 | 
[V:2] B2G2G3F | 
[V:3] D4E4 | 
[V:4] G,,4z4 | 
[V:1] D8 ||  
[V:2] A8 ||  
[V:3] D8 ||  
[V:4] D,8 ||  
[V:1]  [K:F] [K:clef=treble][M:2/1]D8 | 
[V:2]  [K:F] [K:clef=treble-8][M:2/1]d8 | 
[V:3]  [K:F] [K:clef=treble-8][M:2/1]z8 | 
[V:4]  [K:F] [K:clef=bass][M:2/1]z8 | 
[V:1] G6FE | 
[V:2] e6dc | 
[V:3] z8 | 
[V:4] z8 | 
[V:1] F4G4 | 
[V:2] d4G2B2 | 
[V:3] z8 | 
[V:4] z8 | 
[V:1] A4B4- | 
[V:2] c2d3cBA | 
[V:3] z8 | 
[V:4] z8 | 
[V:1] B8 | 
[V:2] G4E2D2- | 
[V:3] z8 | 
[V:4] z8 | 
[V:1] A4B2c2- | 
[V:2] D2F2G2E2 | 
[V:3] z8 | 
[V:4] z8 | 
[V:1] cBAGB2AB | 
[V:2] F3EG2D2 | 
[V:3] z8 | 
[V:4] z8 | 
[V:1] A2G4^F2 | 
[V:2] F2G2A4 | 
[V:3] z8 | 
[V:4] z8 | 
[V:1] G3AB4 | 
[V:2] G4z4 | 
[V:3] z8 | 
[V:4] z8 | 
[V:1] A2F4G2 | 
[V:2] F4B4 | 
[V:3] z8 | 
[V:4] z8 | 
[V:1] F2G3FD2 | 
[V:2] A2B2c2d2- | 
[V:3] z8 | 
[V:4] z8 | 
[V:1] E4D4 ||  
[V:2] d2^c2d4 ||  
[V:3] z8 ||  
[V:4] z8 ||  
[V:1]  [K:F] [K:clef=treble][M:2/1]z8 | 
[V:2]  [K:F] [K:clef=treble-8][M:2/1]d4c2A2 | 
[V:3]  [K:F] [K:clef=treble-8][M:2/1]z8 | 
[V:4]  [K:F] [K:clef=bass][M:2/1]D,4E,2F,2 | 
[V:1] z8 | 
[V:2] B2AGF2G2 | 
[V:3] z8 | 
[V:4] B,,2C,2D,2G,,2- | 
[V:1] z4G4 | 
[V:2] D4E4 | 
[V:3] z8 | 
[V:4] G,,2D,4C,2 | 
[V:1] F2D2E2DC | 
[V:2] D4z2G2- | 
[V:3] z8 | 
[V:4] D,3B,,C,2G,,2- | 
[V:1] B,2C2G,4 | 
[V:2] G2A2B2G2- | 
[V:3] z8 | 
[V:4] G,,2F,,2G,,4 | 
[V:1] A,4G,4 | 
[V:2] G2^F2G4 | 
[V:3] z8 | 
[V:4] D,4z2E,2- | 
[V:1] B,4C4 | 
[V:2] z2F2G2A2 | 
[V:3] z8 | 
[V:4] E,2D,2E,2F,2 | 
[V:1] D8 | 
[V:2] B8- | 
[V:3] z8 | 
[V:4] D,2G,3F,/E,/D,2 | 
[V:1] G,4D4 | 
[V:2] B4B4 | 
[V:3] z8 | 
[V:4] _E,3D,B,,4 | 
[V:1] E2D2C4 | 
[V:2] c2B4A2 | 
[V:3] z8 | 
[V:4] A,,2B,,3G,,A,,2 | 
[V:1] B,2A,2B,2D2 | 
[V:2] G2F2G2F2- | 
[V:3] z8 | 
[V:4] B,,2F,,2z2B,,2 | 
[V:1] C2B,4_E2 | 
[V:2] F2D2E2C2 | 
[V:3] z8 | 
[V:4] A,,2B,,2G,,2A,,2 | 
[V:1] D3C/B,/A,2B,2- | 
[V:2] B,2F4D2- | 
[V:3] z8 | 
[V:4] B,,3A,,/G,,/F,,2G,,2- | 
[V:1] B,2C3D_E2 | 
[V:2] DE3/D/C/B,/A,2B,2 | 
[V:3] z8 | 
[V:4] G,,2A,,3F,,_E,,2 | 
[V:1] DB,B,4A,2 | 
[V:2] D4C4 | 
[V:3] z8 | 
[V:4] B,,4F,,4 | 
[V:1] B,6A,2 | 
[V:2] B,4z4 | 
[V:3] z8 | 
[V:4] z2G,,4F,,2 | 
[V:1] B,4C4 | 
[V:2] D4E2F2- | 
[V:3] z8 | 
[V:4] G,,2B,,2A,,4 | 
[V:1] D2B,2A,4 | 
[V:2] FGG4^F2 | 
[V:3] z8 | 
[V:4] G,,4D,4 | 
[V:1] G,4z4 | 
[V:2] G3AB4- | 
[V:3] z8 | 
[V:4] z2_E,4D,2 | 
[V:1] G8 | 
[V:2] B2G2B2c2 | 
[V:3] z8 | 
[V:4] B,,2_E,4C,2 | 
[V:1] F3GA2B2- | 
[V:2] A2d2z2d2 | 
[V:3] z8 | 
[V:4] D,4F,2G,2 | 
[V:1] B2AGF2G2- | 
[V:2] e2c2d2B2 | 
[V:3] z8 | 
[V:4] E,4D,2E,2- | 
[V:1] G2E2F4 | 
[V:2] G2A4F2 | 
[V:3] z8 | 
[V:4] E,2C,2D,4 | 
[V:1] D2E2F2G2 | 
[V:2] G2E2D4 | 
[V:3] z8 | 
[V:4] B,,2C,2B,,2G,,2- | 
[V:1] D4B,2A,2- | 
[V:2] z2d3cd2- | 
[V:3] z8 | 
[V:4] G,,2z2G,3F, | 
[V:1] A,2G,4B,2- | 
[V:2] d2c2B2d2- | 
[V:3] z8 | 
[V:4] F,2E,2G,4 | 
[V:1] B,2C2D3B, | 
[V:2] dGA/G/F/E/D2G2- | 
[V:3] z8 | 
[V:4] G,,2F,,2B,,3G,, | 
[V:1] D2E2F2D2- | 
[V:2] GDG2F2G2 | 
[V:3] z8 | 
[V:4] B,,2C,2D,2G,,2 | 
[V:1] D2G4^F2 | 
[V:2] B2G2A4 | 
[V:3] z8 | 
[V:4] D,2E,2D,4 | 
[V:1] G8 ||  
[V:2] G8 ||  
[V:3] z8 ||  
[V:4] G,,8 ||  



